src/img/search.svg

<svg width="12" height="12" viewBox="0 0 12 12" fill="none" xmlns="http://www.w3.org/2000/svg">
<path d="M5.28454 0C2.37073 0 0 2.37073 0 5.28455C0 8.19853 2.37073 10.5691 5.28454 10.5691C8.19853 10.5691 10.5691 8.19853 10.5691 5.28455C10.5691 2.37073 8.19853 0 5.28454 0ZM5.28454 9.59351C2.90862 9.59351 0.975609 7.6605 0.975609 5.28457C0.975609 2.90864 2.90862 0.975609 5.28454 0.975609C7.66047 0.975609 9.59348 2.90862 9.59348 5.28455C9.59348 7.66048 7.66047 9.59351 5.28454 9.59351Z" fill="#96979B"/>
<path d="M11.8571 11.1673L9.06032 8.37056C8.86975 8.17999 8.56113 8.17999 8.37056 8.37056C8.17999 8.56097 8.17999 8.86992 8.37056 9.06033L11.1673 11.8571C11.2626 11.9524 11.3873 12 11.5122 12C11.6369 12 11.7618 11.9524 11.8571 11.8571C12.0476 11.6667 12.0476 11.3577 11.8571 11.1673Z" fill="#96979B"/>
</svg>

<svg width="12" height="12" fill="none" xmlns="http://www.w3.org/2000/svg"><path d="M5.285 0A5.29 5.29 0 000 5.285a5.29 5.29 0 005.285 5.284 5.29 5.29 0 005.284-5.284A5.29 5.29 0 005.285 0zm0 9.594a4.314 4.314 0 01-4.31-4.31A4.314 4.314 0 015.286.977a4.314 4.314 0 014.308 4.309 4.314 4.314 0 01-4.308 4.309z" fill="#96979B"/><path d="M11.857 11.167L9.06 8.371a.488.488 0 10-.69.69l2.797 2.796a.486.486 0 00.69 0c.19-.19.19-.5 0-.69z" fill="#96979B"/></svg>
